X:37
T:Downs,The. JC.036
R:Air
S:John Clare,Poet,Helpston. (1793-1864)
O:England
A:Northamptonshire
Z:vmp.P. Headford
M:C
L:1/8
Q:2/4=75
K:G
DG GGG2″ Qu”B2|\
AF ABA2Bc|d2de dcBA|G2GG G4:|!
|:d2dB d4|e2ec e4|E2EF G2GA|BcBA GFED|!
d2dB d4|e2ec e4|E2EF G2GA|BcBA GFED|!
GGGG AAAA|BABc d3z|d2de dcBA|G2″ Crots”GG G4:|

